icons/svg/text-line-height.svg

<svg width="24" height="24" viewBox="0 0 24 24" fill="none" xmlns="http://www.w3.org/2000/svg">
<path d="M2.74963 18.3445L4.74201 20.3822C4.97737 20.6229 5.28868 20.7432 5.6 20.7432M8.45041 18.3445L6.45803 20.3822C6.22266 20.6229 5.91133 20.7432 5.6 20.7432M2.74974 5.60992L4.7516 3.60806C4.98588 3.37378 5.29294 3.25663 5.6 3.25659M8.45052 5.60992L6.44866 3.60806C6.21431 3.37372 5.90715 3.25656 5.6 3.25659M5.6 20.7432V20.3846L5.6 3.69708V3.25659" stroke="currentColor" stroke-width="1.5" stroke-linecap="round" stroke-linejoin="round"/>
<path d="M11.5504 4.25H21.2504" stroke="currentColor" stroke-width="1.5" stroke-linecap="round"/>
<path d="M11.5504 19.75H21.2504" stroke="currentColor" stroke-width="1.5" stroke-linecap="round"/>
<path d="M13.1191 15.5938L14.291 12.8415M14.291 12.8415H18.5098M14.291 12.8415L16.0867 8.62424C16.2104 8.33359 16.5904 8.33359 16.7141 8.62424L18.5098 12.8415M18.5098 12.8415L19.6816 15.5938" stroke="currentColor" stroke-width="1.5" stroke-linecap="round" stroke-linejoin="round"/>
</svg>

<svg xmlns="http://www.w3.org/2000/svg" width="24" height="24" fill="none" viewBox="0 0 24 24"><path stroke="currentColor" stroke-linecap="round" stroke-linejoin="round" stroke-width="1.5" d="m2.75 18.345 1.992 2.037c.235.24.547.361.858.361m2.85-2.398-1.992 2.037c-.235.24-.547.361-.858.361M2.75 5.61l2.002-2.002c.234-.234.54-.351.848-.351M8.45 5.61l-2-2.002a1.2 1.2 0 0 0-.849-.351m0 17.486V3.257"/><path stroke="currentColor" stroke-linecap="round" stroke-width="1.5" d="M11.55 4.25h9.7m-9.7 15.5h9.7"/><path stroke="currentColor" stroke-linecap="round" stroke-linejoin="round" stroke-width="1.5" d="m13.12 15.594 1.171-2.752m0 0h4.219m-4.219 0 1.796-4.218a.335.335 0 0 1 .627 0l1.796 4.217m0 0 1.172 2.753"/></svg>
